icon-themes/colibre_svg/cmd/sc_errorcellstyles.svg

<svg viewBox="0 0 16 16" xmlns="http://www.w3.org/2000/svg"><path d="m5 0a1.0001 1.0001 0 0 0 -.7070312.29296875l-4.00000005 4.00000005a1.0001 1.0001 0 0 0 -.29296875.7070312v6a1.0001 1.0001 0 0 0 .29296875.707031l4.00000005 4a1.0001 1.0001 0 0 0 .7070312.292969h6a1.0001 1.0001 0 0 0 .707031-.292969l4-4a1.0001 1.0001 0 0 0 .292969-.707031v-6a1.0001 1.0001 0 0 0 -.292969-.7070312l-4-4.00000005a1.0001 1.0001 0 0 0 -.707031-.29296875zm.4140625 2h5.1718755l3.414062 3.4140625v5.1718755l-3.414062 3.414062h-5.1718755l-3.4140625-3.414062v-5.1718755z" fill="#808080"/><path d="m7 3v7h2v-7zm0 8v2h2v-2z" fill="#e68497"/></svg>

<svg viewBox="0 0 16 16" xmlns="http://www.w3.org/2000/svg">
  <path
     style="fill:#808080"
     d="M 5,0 A 1.0001,1.0001 0 0 0 4.2929688,0.29296875 L 0.29296875,4.2929688 A 1.0001,1.0001 0 0 0 0,5 v 6 a 1.0001,1.0001 0 0 0 0.29296875,0.707031 l 4.00000005,4 A 1.0001,1.0001 0 0 0 5,16 h 6 a 1.0001,1.0001 0 0 0 0.707031,-0.292969 l 4,-4 A 1.0001,1.0001 0 0 0 16,11 V 5 A 1.0001,1.0001 0 0 0 15.707031,4.2929688 l -4,-4.00000005 A 1.0001,1.0001 0 0 0 11,0 Z M 5.4140625,2 H 10.585938 L 14,5.4140625 V 10.585938 L 10.585938,14 H 5.4140625 L 2,10.585938 V 5.4140625 Z"
     />
  <path
     style="fill:#e68497"
     d="m 7,3 v 7 H 9 V 3 Z m 0,8 v 2 h 2 v -2 z"
     />
</svg>
